images/92305.svg

<?xml version="1.0" encoding="UTF-8"?>
<svg xmlns="http://www.w3.org/2000/svg" xmlns:xlink="http://www.w3.org/1999/xlink" width="300pt" height="300pt" viewBox="0 0 300 300" version="1.1">
<defs>
<g>
<symbol overflow="visible" id="glyph0-0">
<path style="stroke:none;" d="M 0.453125 1.59375 L 0.453125 -6.34375 L 4.953125 -6.34375 L 4.953125 1.59375 Z M 0.953125 1.09375 L 4.453125 1.09375 L 4.453125 -5.84375 L 0.953125 -5.84375 Z M 0.953125 1.09375 "/>
</symbol>
<symbol overflow="visible" id="glyph0-1">
<path style="stroke:none;" d="M 0.890625 -6.5625 L 2.078125 -6.5625 L 4.984375 -1.078125 L 4.984375 -6.5625 L 5.84375 -6.5625 L 5.84375 0 L 4.65625 0 L 1.75 -5.484375 L 1.75 0 L 0.890625 0 Z M 0.890625 -6.5625 "/>
</symbol>
<symbol overflow="visible" id="glyph0-2">
<path style="stroke:none;" d="M 3.546875 -5.953125 C 2.898438 -5.953125 2.382812 -5.710938 2 -5.234375 C 1.625 -4.753906 1.4375 -4.101562 1.4375 -3.28125 C 1.4375 -2.445312 1.625 -1.789062 2 -1.3125 C 2.382812 -0.832031 2.898438 -0.59375 3.546875 -0.59375 C 4.191406 -0.59375 4.703125 -0.832031 5.078125 -1.3125 C 5.453125 -1.789062 5.640625 -2.445312 5.640625 -3.28125 C 5.640625 -4.101562 5.453125 -4.753906 5.078125 -5.234375 C 4.703125 -5.710938 4.191406 -5.953125 3.546875 -5.953125 Z M 3.546875 -6.6875 C 4.460938 -6.6875 5.195312 -6.375 5.75 -5.75 C 6.300781 -5.132812 6.578125 -4.3125 6.578125 -3.28125 C 6.578125 -2.238281 6.300781 -1.410156 5.75 -0.796875 C 5.195312 -0.179688 4.460938 0.125 3.546875 0.125 C 2.617188 0.125 1.878906 -0.179688 1.328125 -0.796875 C 0.773438 -1.410156 0.5 -2.238281 0.5 -3.28125 C 0.5 -4.3125 0.773438 -5.132812 1.328125 -5.75 C 1.878906 -6.375 2.617188 -6.6875 3.546875 -6.6875 Z M 3.546875 -6.6875 "/>
</symbol>
</g>
</defs>
<g id="surface54105">
<rect x="0" y="0" width="300" height="300" style="fill:rgb(100%,100%,100%);fill-opacity:1;stroke:none;"/>
<path style="fill:none;stroke-width:1.2;stroke-linecap:butt;stroke-linejoin:miter;stroke:rgb(0%,0%,0%);stroke-opacity:1;stroke-miterlimit:10;" d="M 73.078125 100.53125 L 77.960938 119.28125 "/>
<path style="fill:none;stroke-width:1.2;stroke-linecap:butt;stroke-linejoin:miter;stroke:rgb(0%,0%,0%);stroke-opacity:1;stroke-miterlimit:10;" d="M 77.960938 119.28125 L 64.167969 132.882812 "/>
<path style=" stroke:none;fill-rule:nonzero;fill:rgb(0%,0%,0%);fill-opacity:1;" d="M 96.640625 124.421875 L 78.871094 115.984375 L 77.054688 122.574219 Z M 96.640625 124.421875 "/>
<path style="fill:none;stroke-width:1.2;stroke-linecap:butt;stroke-linejoin:miter;stroke:rgb(0%,0%,0%);stroke-opacity:1;stroke-miterlimit:10;" d="M 96.640625 124.421875 L 115.320312 129.566406 "/>
<path style="fill:none;stroke-width:1.2;stroke-linecap:butt;stroke-linejoin:miter;stroke:rgb(0%,0%,0%);stroke-opacity:1;stroke-miterlimit:10;" d="M 96.640625 124.421875 L 101.785156 105.746094 "/>
<path style="fill:none;stroke-width:1.2;stroke-linecap:butt;stroke-linejoin:miter;stroke:rgb(0%,0%,0%);stroke-opacity:1;stroke-miterlimit:10;" d="M 96.640625 124.421875 L 91.496094 143.101562 "/>
<path style="fill:none;stroke-width:1.2;stroke-linecap:butt;stroke-linejoin:miter;stroke:rgb(0%,0%,0%);stroke-opacity:1;stroke-miterlimit:10;" d="M 115.320312 129.566406 L 129.113281 115.964844 "/>
<path style="fill:none;stroke-width:1.2;stroke-linecap:butt;stroke-linejoin:miter;stroke:rgb(0%,0%,0%);stroke-opacity:1;stroke-miterlimit:10;" d="M 129.113281 115.964844 L 147.792969 121.109375 "/>
<path style="fill:none;stroke-width:1.2;stroke-linecap:butt;stroke-linejoin:miter;stroke:rgb(0%,0%,0%);stroke-opacity:1;stroke-miterlimit:10;" d="M 147.792969 121.109375 L 154.691406 114.304688 "/>
<path style="fill:none;stroke-width:1.2;stroke-linecap:butt;stroke-linejoin:miter;stroke:rgb(0%,0%,100%);stroke-opacity:1;stroke-miterlimit:10;" d="M 154.691406 114.304688 L 161.585938 107.503906 "/>
<path style="fill:none;stroke-width:1.2;stroke-linecap:butt;stroke-linejoin:miter;stroke:rgb(0%,0%,100%);stroke-opacity:1;stroke-miterlimit:10;" d="M 161.585938 107.503906 L 159.144531 98.128906 "/>
<path style="fill:none;stroke-width:1.2;stroke-linecap:butt;stroke-linejoin:miter;stroke:rgb(0%,0%,0%);stroke-opacity:1;stroke-miterlimit:10;" d="M 159.144531 98.128906 L 156.703125 88.757812 "/>
<path style="fill:none;stroke-width:1.2;stroke-linecap:butt;stroke-linejoin:miter;stroke:rgb(0%,0%,100%);stroke-opacity:1;stroke-miterlimit:10;" d="M 161.585938 107.503906 L 170.925781 110.078125 "/>
<path style="fill:none;stroke-width:1.2;stroke-linecap:butt;stroke-linejoin:miter;stroke:rgb(0%,0%,0%);stroke-opacity:1;stroke-miterlimit:10;" d="M 170.925781 110.078125 L 180.265625 112.648438 "/>
<path style=" stroke:none;fill-rule:nonzero;fill:rgb(100%,100%,100%);fill-opacity:1;" d="M 158.585938 102.003906 L 165.585938 102.003906 L 165.585938 113.003906 L 158.585938 113.003906 Z M 158.585938 102.003906 "/>
<g style="fill:rgb(0%,0%,100%);fill-opacity:1;">
  <use xlink:href="#glyph0-1" x="158.585938" y="110.666992"/>
</g>
<path style="fill:none;stroke-width:1.2;stroke-linecap:butt;stroke-linejoin:miter;stroke:rgb(0%,0%,0%);stroke-opacity:1;stroke-miterlimit:10;" d="M 180.265625 112.648438 L 185.148438 131.398438 "/>
<path style="fill:none;stroke-width:1.2;stroke-linecap:butt;stroke-linejoin:miter;stroke:rgb(0%,0%,0%);stroke-opacity:1;stroke-miterlimit:10;" d="M 185.148438 131.398438 L 203.828125 136.542969 "/>
<path style="fill:none;stroke-width:1.2;stroke-linecap:butt;stroke-linejoin:miter;stroke:rgb(0%,0%,0%);stroke-opacity:1;stroke-miterlimit:10;" d="M 203.828125 136.542969 L 208.714844 155.289062 "/>
<path style="fill:none;stroke-width:1.2;stroke-linecap:butt;stroke-linejoin:miter;stroke:rgb(0%,0%,0%);stroke-opacity:1;stroke-miterlimit:10;" d="M 208.730469 137.269531 L 212.636719 152.265625 "/>
<path style="fill:none;stroke-width:1.2;stroke-linecap:butt;stroke-linejoin:miter;stroke:rgb(0%,0%,0%);stroke-opacity:1;stroke-miterlimit:10;" d="M 217.625 122.9375 L 203.828125 136.542969 "/>
<path style="fill:none;stroke-width:1.2;stroke-linecap:butt;stroke-linejoin:miter;stroke:rgb(0%,0%,0%);stroke-opacity:1;stroke-miterlimit:10;" d="M 208.714844 155.289062 L 227.390625 160.433594 "/>
<path style="fill:none;stroke-width:1.2;stroke-linecap:butt;stroke-linejoin:miter;stroke:rgb(0%,0%,0%);stroke-opacity:1;stroke-miterlimit:10;" d="M 227.390625 160.433594 L 241.1875 146.832031 "/>
<path style="fill:none;stroke-width:1.2;stroke-linecap:butt;stroke-linejoin:miter;stroke:rgb(0%,0%,0%);stroke-opacity:1;stroke-miterlimit:10;" d="M 225.570312 155.828125 L 236.605469 144.945312 "/>
<path style="fill:none;stroke-width:1.2;stroke-linecap:butt;stroke-linejoin:miter;stroke:rgb(0%,0%,0%);stroke-opacity:1;stroke-miterlimit:10;" d="M 227.390625 160.433594 L 229.835938 169.808594 "/>
<path style="fill:none;stroke-width:1.2;stroke-linecap:butt;stroke-linejoin:miter;stroke:rgb(100%,0%,0%);stroke-opacity:1;stroke-miterlimit:10;" d="M 229.835938 169.808594 L 232.277344 179.183594 "/>
<path style="fill:none;stroke-width:1.2;stroke-linecap:butt;stroke-linejoin:miter;stroke:rgb(0%,0%,0%);stroke-opacity:1;stroke-miterlimit:10;" d="M 241.1875 146.832031 L 236.304688 128.082031 "/>
<path style="fill:none;stroke-width:1.2;stroke-linecap:butt;stroke-linejoin:miter;stroke:rgb(0%,0%,0%);stroke-opacity:1;stroke-miterlimit:10;" d="M 241.1875 146.832031 L 250.527344 149.402344 "/>
<path style="fill:none;stroke-width:1.2;stroke-linecap:butt;stroke-linejoin:miter;stroke:rgb(100%,0%,0%);stroke-opacity:1;stroke-miterlimit:10;" d="M 250.527344 149.402344 L 259.867188 151.976562 "/>
<path style="fill:none;stroke-width:1.2;stroke-linecap:butt;stroke-linejoin:miter;stroke:rgb(0%,0%,0%);stroke-opacity:1;stroke-miterlimit:10;" d="M 236.304688 128.082031 L 217.625 122.9375 "/>
<path style="fill:none;stroke-width:1.2;stroke-linecap:butt;stroke-linejoin:miter;stroke:rgb(0%,0%,0%);stroke-opacity:1;stroke-miterlimit:10;" d="M 233.222656 131.964844 L 218.28125 127.847656 "/>
<path style="fill:none;stroke-width:1.2;stroke-linecap:butt;stroke-linejoin:miter;stroke:rgb(100%,0%,0%);stroke-opacity:1;stroke-miterlimit:10;" d="M 259.867188 151.976562 L 262.308594 161.351562 "/>
<path style="fill:none;stroke-width:1.2;stroke-linecap:butt;stroke-linejoin:miter;stroke:rgb(0%,0%,0%);stroke-opacity:1;stroke-miterlimit:10;" d="M 262.308594 161.351562 L 264.75 170.722656 "/>
<path style=" stroke:none;fill-rule:nonzero;fill:rgb(100%,100%,100%);fill-opacity:1;" d="M 255.867188 146.476562 L 263.867188 146.476562 L 263.867188 157.476562 L 255.867188 157.476562 Z M 255.867188 146.476562 "/>
<g style="fill:rgb(100%,0%,0%);fill-opacity:1;">
  <use xlink:href="#glyph0-2" x="255.867188" y="155.139648"/>
</g>
<path style="fill:none;stroke-width:1.2;stroke-linecap:butt;stroke-linejoin:miter;stroke:rgb(100%,0%,0%);stroke-opacity:1;stroke-miterlimit:10;" d="M 232.277344 179.183594 L 225.378906 185.984375 "/>
<path style="fill:none;stroke-width:1.2;stroke-linecap:butt;stroke-linejoin:miter;stroke:rgb(0%,0%,0%);stroke-opacity:1;stroke-miterlimit:10;" d="M 225.378906 185.984375 L 218.480469 192.789062 "/>
<path style=" stroke:none;fill-rule:nonzero;fill:rgb(100%,100%,100%);fill-opacity:1;" d="M 228.277344 173.683594 L 236.277344 173.683594 L 236.277344 184.683594 L 228.277344 184.683594 Z M 228.277344 173.683594 "/>
<g style="fill:rgb(100%,0%,0%);fill-opacity:1;">
  <use xlink:href="#glyph0-2" x="228.277344" y="182.34668"/>
</g>
<path style="fill:none;stroke-width:1.2;stroke-linecap:butt;stroke-linejoin:miter;stroke:rgb(0%,0%,0%);stroke-opacity:1;stroke-miterlimit:10;" d="M 101.785156 105.746094 L 104.355469 96.40625 "/>
<path style="fill:none;stroke-width:1.2;stroke-linecap:butt;stroke-linejoin:miter;stroke:rgb(0%,0%,100%);stroke-opacity:1;stroke-miterlimit:10;" d="M 104.355469 96.40625 L 106.929688 87.066406 "/>
<path style="fill:none;stroke-width:1.2;stroke-linecap:butt;stroke-linejoin:miter;stroke:rgb(0%,0%,0%);stroke-opacity:1;stroke-miterlimit:10;" d="M 106.695312 105.085938 L 108.753906 97.617188 "/>
<path style="fill:none;stroke-width:1.2;stroke-linecap:butt;stroke-linejoin:miter;stroke:rgb(0%,0%,100%);stroke-opacity:1;stroke-miterlimit:10;" d="M 108.753906 97.617188 L 110.808594 90.144531 "/>
<path style="fill:none;stroke-width:1.2;stroke-linecap:butt;stroke-linejoin:miter;stroke:rgb(0%,0%,0%);stroke-opacity:1;stroke-miterlimit:10;" d="M 97.902344 102.667969 L 99.960938 95.195312 "/>
<path style="fill:none;stroke-width:1.2;stroke-linecap:butt;stroke-linejoin:miter;stroke:rgb(0%,0%,100%);stroke-opacity:1;stroke-miterlimit:10;" d="M 99.960938 95.195312 L 102.019531 87.722656 "/>
<path style=" stroke:none;fill-rule:nonzero;fill:rgb(100%,100%,100%);fill-opacity:1;" d="M 103.929688 81.566406 L 110.929688 81.566406 L 110.929688 92.566406 L 103.929688 92.566406 Z M 103.929688 81.566406 "/>
<g style="fill:rgb(0%,0%,100%);fill-opacity:1;">
  <use xlink:href="#glyph0-1" x="103.929688" y="90.229492"/>
</g>
<path style="fill:none;stroke-width:1.2;stroke-linecap:butt;stroke-linejoin:miter;stroke:rgb(0%,0%,0%);stroke-opacity:1;stroke-miterlimit:10;" d="M 91.496094 143.101562 L 72.746094 147.988281 "/>
<path style="fill:none;stroke-width:1.2;stroke-linecap:butt;stroke-linejoin:miter;stroke:rgb(0%,0%,0%);stroke-opacity:1;stroke-miterlimit:10;" d="M 90.769531 148.003906 L 75.769531 151.910156 "/>
<path style="fill:none;stroke-width:1.2;stroke-linecap:butt;stroke-linejoin:miter;stroke:rgb(0%,0%,0%);stroke-opacity:1;stroke-miterlimit:10;" d="M 105.101562 156.898438 L 91.496094 143.101562 "/>
<path style="fill:none;stroke-width:1.2;stroke-linecap:butt;stroke-linejoin:miter;stroke:rgb(0%,0%,0%);stroke-opacity:1;stroke-miterlimit:10;" d="M 72.746094 147.988281 L 67.601562 166.664062 "/>
<path style="fill:none;stroke-width:1.2;stroke-linecap:butt;stroke-linejoin:miter;stroke:rgb(0%,0%,0%);stroke-opacity:1;stroke-miterlimit:10;" d="M 67.601562 166.664062 L 81.207031 180.460938 "/>
<path style="fill:none;stroke-width:1.2;stroke-linecap:butt;stroke-linejoin:miter;stroke:rgb(0%,0%,0%);stroke-opacity:1;stroke-miterlimit:10;" d="M 72.207031 164.84375 L 83.09375 175.878906 "/>
<path style="fill:none;stroke-width:1.2;stroke-linecap:butt;stroke-linejoin:miter;stroke:rgb(0%,0%,0%);stroke-opacity:1;stroke-miterlimit:10;" d="M 67.601562 166.664062 L 58.226562 169.109375 "/>
<path style="fill:none;stroke-width:1.2;stroke-linecap:butt;stroke-linejoin:miter;stroke:rgb(100%,0%,0%);stroke-opacity:1;stroke-miterlimit:10;" d="M 58.226562 169.109375 L 48.855469 171.550781 "/>
<path style="fill:none;stroke-width:1.2;stroke-linecap:butt;stroke-linejoin:miter;stroke:rgb(0%,0%,0%);stroke-opacity:1;stroke-miterlimit:10;" d="M 81.207031 180.460938 L 99.957031 175.578125 "/>
<path style="fill:none;stroke-width:1.2;stroke-linecap:butt;stroke-linejoin:miter;stroke:rgb(0%,0%,0%);stroke-opacity:1;stroke-miterlimit:10;" d="M 81.207031 180.460938 L 78.632812 189.800781 "/>
<path style="fill:none;stroke-width:1.2;stroke-linecap:butt;stroke-linejoin:miter;stroke:rgb(100%,0%,0%);stroke-opacity:1;stroke-miterlimit:10;" d="M 78.632812 189.800781 L 76.0625 199.140625 "/>
<path style="fill:none;stroke-width:1.2;stroke-linecap:butt;stroke-linejoin:miter;stroke:rgb(0%,0%,0%);stroke-opacity:1;stroke-miterlimit:10;" d="M 99.957031 175.578125 L 105.101562 156.898438 "/>
<path style="fill:none;stroke-width:1.2;stroke-linecap:butt;stroke-linejoin:miter;stroke:rgb(0%,0%,0%);stroke-opacity:1;stroke-miterlimit:10;" d="M 96.074219 172.496094 L 100.191406 157.554688 "/>
<path style="fill:none;stroke-width:1.2;stroke-linecap:butt;stroke-linejoin:miter;stroke:rgb(100%,0%,0%);stroke-opacity:1;stroke-miterlimit:10;" d="M 76.0625 199.140625 L 82.863281 206.035156 "/>
<path style="fill:none;stroke-width:1.2;stroke-linecap:butt;stroke-linejoin:miter;stroke:rgb(0%,0%,0%);stroke-opacity:1;stroke-miterlimit:10;" d="M 82.863281 206.035156 L 89.667969 212.933594 "/>
<path style=" stroke:none;fill-rule:nonzero;fill:rgb(100%,100%,100%);fill-opacity:1;" d="M 72.0625 193.640625 L 80.0625 193.640625 L 80.0625 204.640625 L 72.0625 204.640625 Z M 72.0625 193.640625 "/>
<g style="fill:rgb(100%,0%,0%);fill-opacity:1;">
  <use xlink:href="#glyph0-2" x="72.0625" y="202.303711"/>
</g>
<path style="fill:none;stroke-width:1.2;stroke-linecap:butt;stroke-linejoin:miter;stroke:rgb(100%,0%,0%);stroke-opacity:1;stroke-miterlimit:10;" d="M 48.855469 171.550781 L 42.050781 164.652344 "/>
<path style="fill:none;stroke-width:1.2;stroke-linecap:butt;stroke-linejoin:miter;stroke:rgb(0%,0%,0%);stroke-opacity:1;stroke-miterlimit:10;" d="M 42.050781 164.652344 L 35.25 157.753906 "/>
<path style=" stroke:none;fill-rule:nonzero;fill:rgb(100%,100%,100%);fill-opacity:1;" d="M 44.855469 166.050781 L 52.855469 166.050781 L 52.855469 177.050781 L 44.855469 177.050781 Z M 44.855469 166.050781 "/>
<g style="fill:rgb(100%,0%,0%);fill-opacity:1;">
  <use xlink:href="#glyph0-2" x="44.855469" y="174.713867"/>
</g>
</g>
</svg>

<svg xmlns="http://www.w3.org/2000/svg" xmlns:xlink="http://www.w3.org/1999/xlink" width="300pt" height="300pt" viewBox="0 0 300 300"><defs><symbol overflow="visible"><path d="M.453 1.594v-7.938h4.5v7.938zm.5-.5h3.5v-6.938h-3.5zm0 0"/></symbol><symbol overflow="visible" id="a"><path d="M.89-6.563H2.08l2.906 5.485v-5.484h.86V0H4.656L1.75-5.484V0H.89zm0 0"/></symbol><symbol overflow="visible" id="b"><path d="M3.547-5.953c-.65 0-1.164.242-1.547.72-.375.48-.563 1.13-.563 1.952 0 .835.188 1.49.563 1.967.383.48.898.72 1.547.72.644 0 1.156-.24 1.53-.72.376-.476.564-1.132.564-1.968 0-.822-.187-1.474-.562-1.954-.375-.477-.887-.72-1.53-.72zm0-.734c.914 0 1.648.312 2.203.937.55.617.828 1.438.828 2.47 0 1.042-.277 1.87-.828 2.483-.555.617-1.29.922-2.203.922-.93 0-1.668-.305-2.22-.922C.774-1.41.5-2.237.5-3.28c0-1.033.273-1.853.828-2.47.55-.625 1.29-.938 2.22-.938zm0 0"/></symbol></defs><g><path fill="#fff" d="M0 0h300v300H0z"/><path d="M73.078 100.53l4.883 18.75M77.96 119.28L64.17 132.884" stroke-width="1.2" stroke="#000" stroke-miterlimit="10" fill="none"/><path d="M96.64 124.422l-17.77-8.438-1.815 6.59zm0 0"/><path d="M96.64 124.422l18.68 5.144M96.64 124.422l5.145-18.676M96.64 124.422l-5.144 18.68M115.32 129.566l13.793-13.6M129.113 115.965l18.68 5.144M147.793 121.11l6.898-6.805" stroke-width="1.2" stroke="#000" stroke-miterlimit="10" fill="none"/><path d="M154.69 114.305l6.896-6.8M161.586 107.504l-2.44-9.375" stroke-width="1.2" stroke="#00f" stroke-miterlimit="10" fill="none"/><path d="M159.145 98.13l-2.442-9.372" stroke-width="1.2" stroke="#000" stroke-miterlimit="10" fill="none"/><path d="M161.586 107.504l9.34 2.574" stroke-width="1.2" stroke="#00f" stroke-miterlimit="10" fill="none"/><path d="M170.926 110.078l9.34 2.57" stroke-width="1.2" stroke="#000" stroke-miterlimit="10" fill="none"/><path d="M158.586 102.004h7v11h-7zm0 0" fill="#fff"/><use xlink:href="#a" x="158.586" y="110.667" fill="#00f"/><path d="M180.266 112.648l4.882 18.75M185.148 131.398l18.68 5.145M203.828 136.543l4.887 18.746M208.73 137.27l3.907 14.996M217.625 122.938l-13.797 13.605M208.715 155.29l18.676 5.144M227.39 160.434l13.798-13.602M225.57 155.828l11.035-10.883M227.39 160.434l2.446 9.375" stroke-width="1.2" stroke="#000" stroke-miterlimit="10" fill="none"/><path d="M229.836 169.81l2.44 9.374" stroke-width="1.2" stroke="#f00" stroke-miterlimit="10" fill="none"/><path d="M241.188 146.832l-4.883-18.75M241.188 146.832l9.34 2.57" stroke-width="1.2" stroke="#000" stroke-miterlimit="10" fill="none"/><path d="M250.527 149.402l9.34 2.575" stroke-width="1.2" stroke="#f00" stroke-miterlimit="10" fill="none"/><path d="M236.305 128.082l-18.68-5.144M233.223 131.965l-14.942-4.117" stroke-width="1.2" stroke="#000" stroke-miterlimit="10" fill="none"/><path d="M259.867 151.977l2.442 9.375" stroke-width="1.2" stroke="#f00" stroke-miterlimit="10" fill="none"/><path d="M262.31 161.352l2.44 9.37" stroke-width="1.2" stroke="#000" stroke-miterlimit="10" fill="none"/><path d="M255.867 146.477h8v11h-8zm0 0" fill="#fff"/><use xlink:href="#b" x="255.867" y="155.14" fill="#f00"/><path d="M232.277 179.184l-6.898 6.8" stroke-width="1.2" stroke="#f00" stroke-miterlimit="10" fill="none"/><path d="M225.38 185.984l-6.9 6.805" stroke-width="1.2" stroke="#000" stroke-miterlimit="10" fill="none"/><path d="M228.277 173.684h8v11h-8zm0 0" fill="#fff"/><use xlink:href="#b" x="228.277" y="182.347" fill="#f00"/><path d="M101.785 105.746l2.57-9.34" stroke-width="1.2" stroke="#000" stroke-miterlimit="10" fill="none"/><path d="M104.355 96.406l2.575-9.34" stroke-width="1.2" stroke="#00f" stroke-miterlimit="10" fill="none"/><path d="M106.695 105.086l2.06-7.47" stroke-width="1.2" stroke="#000" stroke-miterlimit="10" fill="none"/><path d="M108.754 97.617l2.055-7.472" stroke-width="1.2" stroke="#00f" stroke-miterlimit="10" fill="none"/><path d="M97.902 102.668l2.06-7.473" stroke-width="1.2" stroke="#000" stroke-miterlimit="10" fill="none"/><path d="M99.96 95.195l2.06-7.472" stroke-width="1.2" stroke="#00f" stroke-miterlimit="10" fill="none"/><path d="M103.93 81.566h7v11h-7zm0 0" fill="#fff"/><use xlink:href="#a" x="103.93" y="90.229" fill="#00f"/><path d="M91.496 143.102l-18.75 4.886M90.77 148.004l-15 3.906M105.102 156.898l-13.606-13.796M72.746 147.988l-5.144 18.676M67.602 166.664l13.605 13.797M72.207 164.844l10.887 11.035M67.602 166.664l-9.375 2.445" stroke-width="1.2" stroke="#000" stroke-miterlimit="10" fill="none"/><path d="M58.227 169.11l-9.372 2.44" stroke-width="1.2" stroke="#f00" stroke-miterlimit="10" fill="none"/><path d="M81.207 180.46l18.75-4.882M81.207 180.46l-2.574 9.34" stroke-width="1.2" stroke="#000" stroke-miterlimit="10" fill="none"/><path d="M78.633 189.8l-2.57 9.34" stroke-width="1.2" stroke="#f00" stroke-miterlimit="10" fill="none"/><path d="M99.957 175.578l5.145-18.68M96.074 172.496l4.117-14.94" stroke-width="1.2" stroke="#000" stroke-miterlimit="10" fill="none"/><path d="M76.063 199.14l6.8 6.895" stroke-width="1.2" stroke="#f00" stroke-miterlimit="10" fill="none"/><path d="M82.863 206.035l6.805 6.9" stroke-width="1.2" stroke="#000" stroke-miterlimit="10" fill="none"/><path d="M72.063 193.64h8v11h-8zm0 0" fill="#fff"/><use xlink:href="#b" x="72.063" y="202.304" fill="#f00"/><path d="M48.855 171.55l-6.804-6.898" stroke-width="1.2" stroke="#f00" stroke-miterlimit="10" fill="none"/><path d="M42.05 164.652l-6.8-6.898" stroke-width="1.2" stroke="#000" stroke-miterlimit="10" fill="none"/><path d="M44.855 166.05h8v11h-8zm0 0" fill="#fff"/><use xlink:href="#b" x="44.855" y="174.714" fill="#f00"/></g></svg>
